X: 13686
T: Footspa, The
R: reel
M: 4/4
K: Eminor
EG|:"Em"~B2 Bc BAGB|"D"AGFG "Em"EEGB|e2 e^d egfe|"B7"~B2 Bc B2 Bd|
"Am"cBcf fedc|"G"B2 Bc B2 GA|"B7"B2 Bc BAGF|1 "Em"EEGB eFdc:|2 "Em"EEGB egfe||
|:"Am"caag fedc|"G"Bggf g2 dc|"D"Affe fedc|"G"Bggf g2 fe|"Am"caaf|"D"dBcA|
"G"Gggf g2ga|bg"D/F#"af "Em"ge"D/F#"dc|/ [1"G"BG"D/F#"AF"Em"E2EG:|2 "G"BG"D/F#"AF"Em" E2||

